assets/images/icons/logout.svg

<svg width="21" height="20" viewBox="0 0 21 20" fill="none" xmlns="http://www.w3.org/2000/svg">
<path d="M15.0333 12.8083C14.875 12.8083 14.7167 12.75 14.5917 12.625C14.35 12.3833 14.35 11.9833 14.5917 11.7417L16.2833 10.05L14.5917 8.35835C14.35 8.11668 14.35 7.71668 14.5917 7.47501C14.8333 7.23335 15.2333 7.23335 15.475 7.47501L17.6083 9.60835C17.85 9.85001 17.85 10.25 17.6083 10.4917L15.475 12.625C15.35 12.75 15.1917 12.8083 15.0333 12.8083Z" fill="#C6525A"/>
<path d="M17.1083 10.675H8.6333C8.29163 10.675 8.0083 10.3917 8.0083 10.05C8.0083 9.70832 8.29163 9.42499 8.6333 9.42499H17.1083C17.45 9.42499 17.7333 9.70832 17.7333 10.05C17.7333 10.3917 17.45 10.675 17.1083 10.675Z" fill="#C6525A"/>
<path d="M10.3 17.2917C6.0083 17.2917 3.0083 14.2917 3.0083 10C3.0083 5.70834 6.0083 2.70834 10.3 2.70834C10.6416 2.70834 10.925 2.99168 10.925 3.33334C10.925 3.67501 10.6416 3.95834 10.3 3.95834C6.74163 3.95834 4.2583 6.44168 4.2583 10C4.2583 13.5583 6.74163 16.0417 10.3 16.0417C10.6416 16.0417 10.925 16.325 10.925 16.6667C10.925 17.0083 10.6416 17.2917 10.3 17.2917Z" fill="#C6525A"/>
</svg>

<svg xmlns="http://www.w3.org/2000/svg" width="21" height="20" fill="none"><path fill="#C6525A" d="M15.033 12.808a.618.618 0 0 1-.441-.183.629.629 0 0 1 0-.883l1.691-1.692-1.691-1.692a.629.629 0 0 1 0-.883.629.629 0 0 1 .883 0l2.133 2.133a.629.629 0 0 1 0 .884l-2.133 2.133a.618.618 0 0 1-.442.183Z"/><path fill="#C6525A" d="M17.108 10.675H8.633a.63.63 0 0 1-.625-.625.63.63 0 0 1 .625-.625h8.475a.63.63 0 0 1 .625.625.63.63 0 0 1-.625.625Z"/><path fill="#C6525A" d="M10.3 17.292c-4.292 0-7.292-3-7.292-7.292s3-7.292 7.292-7.292a.63.63 0 0 1 .625.625.63.63 0 0 1-.625.625c-3.558 0-6.042 2.484-6.042 6.042s2.484 6.042 6.042 6.042a.63.63 0 0 1 .625.625.63.63 0 0 1-.625.625Z"/></svg>
